X: 744
T: Credo No 1
C: Anonim
L: 1/4
M: C
N: Derived from pl-kk--kk-i-388--001_anonim--credo-no-1.krn
%%staves [1 2 3 4]
V: 1
V: 2 clef=alto
V: 3 clef=tenor
V: 4 clef=bass
K: C
[V:1] A2AA | 
[V:2] C2DE | 
[V:3] A,2A,A, | 
[V:4] A,,2B,,C, | 
[V:1] AAA2 | 
[V:2] FED2 | 
[V:3] A,A,A,2 | 
[V:4] D,E,F,2 | 
[V:1] ^G2zG | 
[V:2] E2zE | 
[V:3] B,2zB, | 
[V:4] E,2zE, | 
[V:1] ABce/ e/ | 
[V:2] EEEE/ E/ | 
[V:3] A,^G,A,C/ C/ | 
[V:4] C,B,,A,,A,/ A,/ | 
[V:1] e>dcA | 
[V:2] E2EA- | 
[V:3] B,2A,A,- | 
[V:4] ^G,2A,A, | 
[V:1] A^cde | 
[V:2] AAAA | 
[V:3] A,ED^C | 
[V:4] A,=G,F,E, | 
[V:1] ff>ff- | 
[V:2] AA>AA- | 
[V:3] DD>DD- | 
[V:4] D,D,>D,D,- | 
[V:1] ff2f | 
[V:2] AA2A | 
[V:3] DD2D | 
[V:4] D,D,2C, | 
[V:1] fedc | 
[V:2] G2^GA | 
[V:3] DCB,A, | 
[V:4] B,,C,E,F, | 
[V:1] B3B | 
[V:2] A3^G | 
[V:3] F2ED | 
[V:4] D,2E,2 | 
[V:1] A2cc | 
[V:2] A2z2 | 
[V:3] C2EE | 
[V:4] A,,2z2 | 
[V:1] c2B2 | 
[V:2] GGGG | 
[V:3] E2D2 | 
[V:4] CCG,G, | 
[V:1] A>AAA- | 
[V:2] E>EEF- | 
[V:3] C>CCC- | 
[V:4] A,>A,A,F,- | 
[V:1] AAA2 | 
[V:2] FFF2 | 
[V:3] CCC2 | 
[V:4] F,F,F,2 | 
[V:1] G2c3/c/ | 
[V:2] E2G3/G/ | 
[V:3] C2E3/E/ | 
[V:4] C,2C3/C/ | 
[V:1] cc2c | 
[V:2] GG2G | 
[V:3] EE2E | 
[V:4] CC2G, | 
[V:1] AAA3/A/ | 
[V:2] EEF3/F/ | 
[V:3] CCC3/C/ | 
[V:4] A,A,F,3/F,/ | 
[V:1] G2cc | 
[V:2] E2GG | 
[V:3] C2CC | 
[V:4] C,2E,E, | 
[V:1] Bcde | 
[V:2] G3G | 
[V:3] DCB,C | 
[V:4] F,E,D,C, | 
[V:1] f2d2 | 
[V:2] F2G2 | 
[V:3] A,2B,2 | 
[V:4] D,2G,2 | 
[V:1] edcB/ B/ | 
[V:2] G3G | 
[V:3] CDE/ E/D | 
[V:4] C,B,,C,D,/ D,/ | 
[V:1] A2A2 | 
[V:2] GG/ G/G^F | 
[V:3] ^C2D=C | 
[V:4] E,2D,D, | 
[V:1] G2z2 | 
[V:2] G2G3/=F/ | 
[V:3] B,2z2 | 
[V:4] G,2z2 | 
[V:1] z4 | 
[V:2] ED^CD | 
[V:3] z_B,2B,/ B,/ | 
[V:4] G,>F,E,D, | 
[V:1] z2zA- | 
[V:2] EFGA/G/ | 
[V:3] A,D2^C | 
[V:4] ^C,D,E,2 | 
[V:1] Ad2e | 
[V:2] FA2G | 
[V:3] D2z^C | 
[V:4] D,2F,E, | 
[V:1] f>ed2 | 
[V:2] FA^GA | 
[V:3] DEF2- | 
[V:4] D,=C,B,,A,, | 
[V:1] dfed | 
[V:2] B2B2 | 
[V:3] FDEF | 
[V:4] ^G,,4 | 
[V:1] c2_B2 | 
[V:2] BA2=G | 
[V:3] E2DC | 
[V:4] A,,C,D,E, | 
[V:1] AAG2 | 
[V:2] GF>FE | 
[V:3] C3_B, | 
[V:4] F,>F,C,2 | 
[V:1] F2G2 | 
[V:2] DF2E | 
[V:3] A,2DC | 
[V:4] D,C,_B,,C, | 
[V:1] AAAA/ A/ | 
[V:2] FFFF/ F/ | 
[V:3] CCCC/ C/ | 
[V:4] F,F,F,F,/ F,/ | 
[V:1] A>FF2 | 
[V:2] F>CC2 | 
[V:3] C>A,A,2 | 
[V:4] F,>F,F,2 | 
[V:1] zccc | 
[V:2] zAAA | 
[V:3] zCCC | 
[V:4] zF,F,F, | 
[V:1] c2cd | 
[V:2] GAGG | 
[V:3] C2C=B, | 
[V:4] E,F,E,D, | 
[V:1] e2ee | 
[V:2] G2GG | 
[V:3] C2CC | 
[V:4] C,E,G,C | 
[V:1] g3f | 
[V:2] GcBA | 
[V:3] E2DC | 
[V:4] G,3A, | 
[V:1] fe2d | 
[V:2] G2^GA | 
[V:3] DE2F | 
[V:4] B,CB,A, | 
[V:1] dcB2 | 
[V:2] BAFD | 
[V:3] E2DB, | 
[V:4] ^G,A,2=G, | 
[V:1] A3^G | 
[V:2] EDE2- | 
[V:3] CA,B,2 | 
[V:4] G,F,E,D, | 
[V:1] ABce | 
[V:2] E2Ee | 
[V:3] A,^G,A,E | 
[V:4] C,B,,A,,E, | 
[V:1] cBAE | 
[V:2] cBAE | 
[V:3] CB,A,=G, | 
[V:4] CB,A,G, | 
[V:1] A4 | 
[V:2] C2DE | 
[V:3] A,2B,C | 
[V:4] F,E,D,C, | 
[V:1] A2^G2 | 
[V:2] F2E2 | 
[V:3] D2B,2 | 
[V:4] B,,2E,2 | 
[V:1] A4 ||  
[V:2] E4 ||  
[V:3] A,4 ||  
[V:4] !fermata!A,,4 ||  
[V:1] [M:3/4]FFA | 
[V:2] [M:3/4]FFF | 
[V:3] [M:3/4]z3 | 
[V:4] [M:3/4]z3 | 
[V:1] c2c | 
[V:2] A2F | 
[V:3] F,F,A, | 
[V:4] F,F,D, | 
[V:1] efe | 
[V:2] GFG | 
[V:3] C3 | 
[V:4] C,A,,C, | 
[V:1] dcA | 
[V:2] FGF | 
[V:3] A,C2 | 
[V:4] D,E,F, | 
[V:1] !fermata!G3 | 
[V:2] !fermata!E3 ||  
[V:3] !fermata!C3 | 
[V:4] C,3 | 
[V:1] FFA | 
[V:2] zzF | 
[V:3] z3 | 
[V:4] z3 | 
[V:1] c2d | 
[V:2] AGF | 
[V:3] CC=B, | 
[V:4] F,E,D, | 
[V:1] efe | 
[V:2] E/^G/ A/=G/F | 
[V:3] C/D/ C/D/C | 
[V:4] C,/ B,,/ A,,/ B,,/ C,/ E,/ | 
[V:1] dcA | 
[V:2] G/F/EF | 
[V:3] =B,C2 | 
[V:4] G,/^G,/A,=F, | 
[V:1] !fermata!G3 ||  
[V:2] !fermata!E3 ||  
[V:3] !fermata!C3 ||  
[V:4] !fermata!C,3 ||  
[V:1] G2A | 
[V:2] E3 | 
[V:3] C2^C | 
[V:4] C_B,A, | 
[V:1] _B2c | 
[V:2] G3 | 
[V:3] D2=C | 
[V:4] G,F,E, | 
[V:1] A3 | 
[V:2] FF2 | 
[V:3] C3 | 
[V:4] F,F,2 | 
[V:1] G2F | 
[V:2] FED | 
[V:3] C2A, | 
[V:4] C,2D, | 
[V:1] !fermata!E3 ||  
[V:2] !fermata!^C3 ||  
[V:3] !fermata!A,3 ||  
[V:4] !fermata!A,,3 ||  
[V:1] zz^F | 
[V:2] zzD | 
[V:3] A,A,A, | 
[V:4] zzD, | 
[V:1] ^F2G | 
[V:2] D2D | 
[V:3] A,2_B, | 
[V:4] D,2G, | 
[V:1] GA_B | 
[V:2] D=F2 | 
[V:3] _B,CD | 
[V:4] G,F,_B,, | 
[V:1] _BAG | 
[V:2] F2D | 
[V:3] DC_B, | 
[V:4] _B,,F,G, | 
[V:1] ^F3 ||  
[V:2] D3 ||  
[V:3] A,3 | 
[V:4] D,3 | 
[V:1] z6 | 
[V:2] z3 | 
[V:3] zDA, | 
[V:4] z3 | 
[V:1]  | 
[V:2] zGD | 
[V:3] =B,3 | 
[V:4] G,3 | 
[V:1] zcG | 
[V:2] E3 | 
[V:3] C2_B, | 
[V:4] C,3 | 
[V:1] A2^c | 
[V:2] FAE | 
[V:3] A,3 | 
[V:4] F,2G, | 
[V:1] d^cd | 
[V:2] DGG3// G// | 
[V:3] z_B,B, | 
[V:4] F,E,D, | 
[V:1] efz | 
[V:2] GFz | 
[V:3] _B,A,z | 
[V:4] ^C,D,z | 
[V:1] z6 | 
[V:2] z_B3/B/ | 
[V:3] D>DC | 
[V:4] z3 | 
[V:1]  | 
[V:2] A>A^G | 
[V:3] C/ C/=B,B, | 
[V:4] F,/ F,/F,E, | 
[V:1] zze- | 
[V:2] =GG3/G/ | 
[V:3] _B,/ B,<B,B,/ | 
[V:4] E,/D,/^C,2 | 
[V:1] e/ e/dc | 
[V:2] =F2^F | 
[V:3] A,A,2 | 
[V:4] D,/ D,/D,^D, | 
[V:1] cBz | 
[V:2] EEz | 
[V:3] A,^G,z | 
[V:4] E,E,E, | 
[V:1] z3 | 
[V:2] zzE | 
[V:3] zA,C | 
[V:4] F,>F, E,/ E,/ | 
[V:1] zzE | 
[V:2] F>F E/ E/ | 
[V:3] C/ C/ =B,/ B,/ C/_B,/ | 
[V:4] D,2C, | 
[V:1] G>G F/ F/ | 
[V:2] E2D/ D/ | 
[V:3] A,A,A, | 
[V:4] ^C,>C, D,/ D,/ | 
[V:1] FEz | 
[V:2] D^Cz | 
[V:3] A,A,A, | 
[V:4] A,,A,,z | 
[V:1] ^FFz | 
[V:2] D2D | 
[V:3] A,A,z | 
[V:4] D,D,z | 
[V:1] ^FFz | 
[V:2] D_EE | 
[V:3] A,A,z | 
[V:4] =C,C,z | 
[V:1] z^FG | 
[V:2] _E2=E | 
[V:3] zA,G, | 
[V:4] =B,,3 | 
[V:1] =F3 | 
[V:2] ED2 | 
[V:3] G,^G,A, | 
[V:4] B,,2A,, | 
[V:1] E3 | 
[V:2] DCA, | 
[V:3] B,A,E,/^F,/ | 
[V:4] ^G,,A,,B,, | 
[V:1] E2^D | 
[V:2] =B,3- | 
[V:3] G,^F,F, | 
[V:4] B,,2B,, | 
[V:1] !fermata!E3 ||  
[V:2] B,3 ||  
[V:3] E,3 ||  
[V:4] E,3 ||  
[V:1] [M:C]E2EE | 
[V:2] [M:C]E2EE | 
[V:3] [M:C]E,2E,E, | 
[V:4] [M:C]E,2E,E, | 
[V:1] E2^G2 | 
[V:2] E2E2 | 
[V:3] E,2B,2 | 
[V:4] E,2D,2 | 
[V:1] A2Bc | 
[V:2] E2EE | 
[V:3] A,2^G,A, | 
[V:4] C,2B,,A,, | 
[V:1] c2B2 | 
[V:2] E2E2 | 
[V:3] A,2^G,B, | 
[V:4] E,2E,E, | 
[V:1] z4 | 
[V:2] z2zE | 
[V:3] C2B,2 | 
[V:4] A,2=G,2 | 
[V:1] z2zc | 
[V:2] A2G2 | 
[V:3] A,2C2 | 
[V:4] F,2E,2 | 
[V:1] d2ee | 
[V:2] G2G2 | 
[V:3] B,2CC | 
[V:4] D,2C,C, | 
[V:1] e2d2 | 
[V:2] G2G2 | 
[V:3] C2B,2 | 
[V:4] G,2G,2 | 
[V:1] GABc | 
[V:2] z4 | 
[V:3] z2=G,A, | 
[V:4] z4 | 
[V:1] deff | 
[V:2] z2F2- | 
[V:3] B,CDD | 
[V:4] z2D,D, | 
[V:1] f4 | 
[V:2] FGAB | 
[V:3] D4 | 
[V:4] D,E,F,G, | 
[V:1] f2e2 | 
[V:2] A2AA | 
[V:3] D2C2 | 
[V:4] A,2A,A, | 
[V:1] e2ee | 
[V:2] G4 | 
[V:3] C2C2 | 
[V:4] _B,4 | 
[V:1] f2ed | 
[V:2] F2G2 | 
[V:3] C3B, | 
[V:4] A,2G,F, | 
[V:1] g2B2 | 
[V:2] G2FF | 
[V:3] C2D2 | 
[V:4] E,2G,2 | 
[V:1] c4 | 
[V:2] E2FG | 
[V:3] C2DE | 
[V:4] A,2A,G, | 
[V:1] c4 | 
[V:2] A4 | 
[V:3] F2E2 | 
[V:4] F,2^F,2 | 
[V:1] c2B2 | 
[V:2] G3F | 
[V:3] D4 | 
[V:4] G,4 | 
[V:1] c2e2 | 
[V:2] E2G2 | 
[V:3] C2E2 | 
[V:4] C,2C2 | 
[V:1] e>ee2 | 
[V:2] G>GG2 | 
[V:3] E>EE2 | 
[V:4] C>CC2 | 
[V:1] z2E2 | 
[V:2] z2C2 | 
[V:3] z2G,2 | 
[V:4] z2C,2 | 
[V:1] E2F2 | 
[V:2] D2C2 | 
[V:3] ^G,2A,2 | 
[V:4] B,,2A,,2 | 
[V:1] G3e | 
[V:2] B,3^G | 
[V:3] ^G,3B, | 
[V:4] E,3E, | 
[V:1] e2ee | 
[V:2] ^G>GG2 | 
[V:3] B,>B,B,2 | 
[V:4] E,>E,E,2 | 
[V:1] E2F2 | 
[V:2] B,2D2 | 
[V:3] ^G,2A,2 | 
[V:4] E,2D,2 | 
[V:1] G2A2 | 
[V:2] E2F2 | 
[V:3] C2C2 | 
[V:4] C,2F,2 | 
[V:1] A2A_B | 
[V:2] G2GG | 
[V:3] ^C2CD | 
[V:4] E,2E,D, | 
[V:1] _B>AA2 | 
[V:2] G>GG2 | 
[V:3] E>EE2 | 
[V:4] C,>C,C,2 | 
[V:1] z2A^c | 
[V:2] z2AA | 
[V:3] z2^CE | 
[V:4] A,3G, | 
[V:1] deff | 
[V:2] A2AA | 
[V:3] D^CDD | 
[V:4] F,E,D,C, | 
[V:1] f2e2 | 
[V:2] =G2G2 | 
[V:3] D2=C2 | 
[V:4] B,,2C,2 | 
[V:1] zedc | 
[V:2] zG^GA | 
[V:3] zEEE | 
[V:4] zC,B,,A,, | 
[V:1] B4 | 
[V:2] A2^G2 | 
[V:3] F2E2 | 
[V:4] D,2E,2 | 
[V:1] A2c2 | 
[V:2] A2=G2 | 
[V:3] C2E2 | 
[V:4] A,,2C,2 | 
[V:1] B2A2 | 
[V:2] F2^F2 | 
[V:3] D2C2 | 
[V:4] D,2^D,2 | 
[V:1] ^G2BB | 
[V:2] E2EE | 
[V:3] B,2^G,G, | 
[V:4] E,2=D,2 | 
[V:1] e4 | 
[V:2] E2G2 | 
[V:3] A,2_B,2 | 
[V:4] C,2^C,2 | 
[V:1] e2dc | 
[V:2] F3E | 
[V:3] A,4 | 
[V:4] D,3E, | 
[V:1] B2A2 | 
[V:2] D2^D2 | 
[V:3] G,2A,2 | 
[V:4] F,4 | 
[V:1] ^G2A2 | 
[V:2] E2^F2 | 
[V:3] B,2C2 | 
[V:4] E,2^D,2 | 
[V:1] A2^G2 | 
[V:2] E3E | 
[V:3] B,3B, | 
[V:4] E,3E, | 
[V:1] A2A2 | 
[V:2] E4 | 
[V:3] A,4 | 
[V:4] A,,4 | 
[V:1] A2=G2 | 
[V:2] F4 | 
[V:3] z4 | 
[V:4] A,,4 | 
[V:1] G2F2 | 
[V:2] E4 | 
[V:3] z2A,2 | 
[V:4] A,,4 | 
[V:1] F2E2 | 
[V:2] D2^C2 | 
[V:3] A,2G,2 | 
[V:4] A,,4 | 
[V:1] D2E2 | 
[V:2] D2^C2 | 
[V:3] F,2E,2 | 
[V:4] A,,4 | 
[V:1] =F4 | 
[V:2] D4 | 
[V:3] D,2F,2 | 
[V:4] A,,4 | 
[V:1] E4 |]  
[V:2] ^C4 |]  
[V:3] A,4 |]  
[V:4] A,,4 |]  

